X:230
T:Nice 'n Simple
M:3/4
L:1/8
K:D
a2 b2 a2|g2 fe fd|e2 +A4e4+|\
a2 ba gf|ed cd ec|d2 d4 ::
d2 e2 f2|g2 fe fd|e2 A4|\
d2 e2 f2|g2 fe fd|c2 d4:|
